neru-light-classic/32x32/apps/thermal-monitor.svg

<?xml version="1.0" encoding="UTF-8" standalone="no"?>
<svg
   xmlns:dc="http://purl.org/dc/elements/1.1/"
   xmlns:cc="http://creativecommons.org/ns#"
   xmlns:rdf="http://www.w3.org/1999/02/22-rdf-syntax-ns#"
   xmlns:svg="http://www.w3.org/2000/svg"
   xmlns="http://www.w3.org/2000/svg"
   xmlns:xlink="http://www.w3.org/1999/xlink"
   xmlns:sodipodi="http://sodipodi.sourceforge.net/DTD/sodipodi-0.dtd"
   xmlns:inkscape="http://www.inkscape.org/namespaces/inkscape"
   width="32"
   height="32"
   version="1"
   id="svg102"
   sodipodi:docname="thermal-monitor.svg"
   inkscape:version="0.92.1 r">
  <metadata
     id="metadata106">
    <rdf:RDF>
      <cc:Work
         rdf:about="">
        <dc:format>image/svg+xml</dc:format>
        <dc:type
           rdf:resource="http://purl.org/dc/dcmitype/StillImage" />
      </cc:Work>
    </rdf:RDF>
  </metadata>
  <sodipodi:namedview
     pagecolor="#ffffff"
     bordercolor="#666666"
     borderopacity="1"
     objecttolerance="10"
     gridtolerance="10"
     guidetolerance="10"
     inkscape:pageopacity="0"
     inkscape:pageshadow="2"
     inkscape:window-width="640"
     inkscape:window-height="480"
     id="namedview104"
     showgrid="false"
     inkscape:zoom="9.5"
     inkscape:cx="-24.105263"
     inkscape:cy="16"
     inkscape:current-layer="svg102" />
  <defs
     id="defs36">
    <filter
       id="filter3831"
       style="color-interpolation-filters:sRGB">
      <feGaussianBlur
         stdDeviation=".637"
         id="feGaussianBlur2" />
    </filter>
    <clipPath
       id="clipPath3823">
      <path
         fill="#fff"
         d="m108.81 58c-1.56 0-2.81 1.254-2.81 2.812v24.375c0 1.559 1.25 2.813 2.81 2.813h24.375c1.57 0 2.82-1.254 2.82-2.812v-24.375c0-1.559-1.25-2.813-2.81-2.813h-24.375zm7.1875 4.5h10v8.75h5l-10 13.75-10-13.75h5v-8.75z"
         id="path5" />
    </clipPath>
    <linearGradient
       id="linearGradient3812"
       x1="65.263"
       x2="65.263"
       y1="64.205"
       y2="50.069"
       gradientTransform="matrix(.625 0 0 .625 78.5 32.25)"
       gradientUnits="userSpaceOnUse">
      <stop
         offset="0"
         id="stop8" />
      <stop
         offset="1"
         stop-opacity="0"
         id="stop10" />
    </linearGradient>
    <filter
       id="filter3806"
       style="color-interpolation-filters:sRGB">
      <feGaussianBlur
         stdDeviation="1.2"
         id="feGaussianBlur13" />
    </filter>
    <linearGradient
       id="linearGradient3788"
       x1="70"
       x2="70"
       y1="54"
       y2="75.095"
       gradientTransform="translate(0,4)"
       gradientUnits="userSpaceOnUse"
       xlink:href="#linearGradient3737" />
    <linearGradient
       id="linearGradient3773"
       x1="56"
       x2="88"
       y1="72"
       y2="72"
       gradientTransform="matrix(.9375 0 0 .9375 -140.5 3.5)"
       gradientUnits="userSpaceOnUse">
      <stop
         offset="0"
         stop-color="#499119"
         id="stop17" />
      <stop
         offset="1"
         stop-color="#8fd625"
         id="stop19" />
    </linearGradient>
    <linearGradient
       id="linearGradient3832"
       x1="65.263"
       x2="65.263"
       y1="64.205"
       y2="50.069"
       gradientTransform="matrix(.625 0 0 .625 28.5 31.25)"
       gradientUnits="userSpaceOnUse"
       xlink:href="#linearGradient3737" />
    <filter
       id="filter3174"
       style="color-interpolation-filters:sRGB">
      <feGaussianBlur
         stdDeviation="1.71"
         id="feGaussianBlur23" />
    </filter>
    <linearGradient
       id="linearGradient3737">
      <stop
         offset="0"
         stop-color="#fff"
         id="stop26" />
      <stop
         offset="1"
         stop-color="#fff"
         stop-opacity="0"
         id="stop28" />
    </linearGradient>
    <linearGradient
       id="ButtonShadow"
       x1="45.448"
       x2="45.448"
       y1="92.54"
       y2="7.016"
       gradientTransform="scale(1.0059 .99417)"
       gradientUnits="userSpaceOnUse">
      <stop
         offset="0"
         id="stop31" />
      <stop
         offset="1"
         stop-opacity=".588"
         id="stop33" />
    </linearGradient>
  </defs>
  <g
     display="none"
     transform="translate(-187.24 -49.656)"
     id="g40">
    <path
       fill="url(#ButtonShadow)"
       opacity=".9"
       d="m11 7 37-2 37 2c3.324 0 6 2.676 6 6v73c0 3.324-2.676 6-6 6h-74c-3.324 0-6-2.676-6-6v-73c0-3.324 2.676-6 6-6z"
       filter="url(#filter3174)"
       id="path38" />
  </g>
  <g
     display="none"
     transform="translate(-187.24 -49.656)"
     id="g52">
    <rect
       opacity=".6"
       width="30"
       height="30"
       x="-86"
       y="56"
       filter="url(#filter3806)"
       rx="2.813"
       ry="2.813"
       transform="matrix(0,-1,1,0,0,4)"
       id="rect42" />
    <rect
       fill="url(#linearGradient3773)"
       width="30"
       height="30"
       x="-88"
       y="56"
       rx="2.813"
       ry="2.813"
       transform="rotate(-90)"
       id="rect44" />
    <path
       fill="url(#linearGradient3788)"
       opacity=".5"
       d="m58.812 58c-1.558 0-2.812 1.254-2.812 2.812v24.375c0 0.87307 0.41082 1.6412 1.0312 2.1562-0.003-0.053-0.031-0.101-0.031-0.155v-24.375c0-1.559 1.171-2.813 2.625-2.813h22.75c1.454 0 2.625 1.254 2.625 2.812v24.375c0 0.05463-0.02841 0.10241-0.03125 0.15625 0.62-0.514 1.031-1.282 1.031-2.155v-24.375c0-1.559-1.254-2.813-2.812-2.813h-24.375z"
       id="path46" />
    <path
       fill="url(#linearGradient3812)"
       opacity=".6"
       d="m116 63.5v8.75h-5l10 13.75 10-13.75h-5v-8.75h-10z"
       clip-path="url(#clipPath3823)"
       filter="url(#filter3831)"
       transform="translate(-50)"
       id="path48" />
    <path
       fill="url(#linearGradient3832)"
       d="m66 62.5v8.75h-5l10 13.75 10-13.75h-5v-8.75h-10z"
       id="path50" />
  </g>
  <rect
     style="opacity:1;fill:#b7b7b7;fill-opacity:1;fill-rule:evenodd;stroke:none;stroke-width:1.03534329;stroke-linecap:round;stroke-linejoin:bevel;stroke-miterlimit:4;stroke-dasharray:none;stroke-dashoffset:0;stroke-opacity:1"
     id="rect4497-3"
     width="28.203388"
     height="28.203388"
     x="1.8983059"
     y="1.8983059"
     ry="5.575182" />
  <path
     style="opacity:1;fill:#4d4d4d"
     d="m 16,7.0000002 c -1.662,0 -3,1.338 -3,2.9999998 v 6.007812 A 5,5 0 0 0 11,20 a 5,5 0 0 0 5,5 5,5 0 0 0 5,-5 5,5 0 0 0 -2,-3.992188 V 10 C 19,8.3380002 17.662,7.0000002 16,7.0000002 Z m 0,2 c 0.588594,0 1,0.4114055 1,0.9999998 v 7.007812 l 0.800781,0.59961 C 18.555751,18.173647 18.997915,19.058326 19,20.001953 18.999,21.681553 17.679883,23 16,23 14.320117,23 13.001036,21.681553 13,20.001953 v -0.002 c 0.0027,-0.942892 0.444771,-1.826744 1.199219,-2.392578 L 15,17.007765 V 10 c 0,-0.5885943 0.411406,-0.9999998 1,-0.9999998 z"
     id="path96"
     inkscape:connector-curvature="0" />
  <path
     style="fill:#f75f5f"
     d="m 15,13 v 4.007812 l -0.800781,0.59961 C 13.444771,18.173256 13.0027,19.057108 13,20 v 0.002 c 10e-4,1.679553 1.320117,2.998 3,2.998 1.679883,0 2.998964,-1.318447 3,-2.998047 -0.0021,-0.943627 -0.444249,-1.828306 -1.199219,-2.394531 L 17,17.007812 V 13 Z"
     id="path100"
     inkscape:connector-curvature="0" />
</svg>

<svg xmlns="http://www.w3.org/2000/svg" xmlns:xlink="http://www.w3.org/1999/xlink" width="32" height="32" version="1"><defs><linearGradient id="g" x1="65.263" x2="65.263" y1="64.205" y2="50.069" gradientTransform="matrix(.625 0 0 .625 78.5 32.25)" gradientUnits="userSpaceOnUse"><stop offset="0"/><stop offset="1" stop-opacity="0"/></linearGradient><linearGradient id="f" x1="70" x2="70" y1="54" y2="75.095" gradientTransform="translate(0 4)" gradientUnits="userSpaceOnUse" xlink:href="#a"/><linearGradient id="e" x1="56" x2="88" y1="72" y2="72" gradientTransform="translate(-140.5 3.5) scale(.9375)" gradientUnits="userSpaceOnUse"><stop offset="0" stop-color="#499119"/><stop offset="1" stop-color="#8fd625"/></linearGradient><linearGradient id="j" x1="65.263" x2="65.263" y1="64.205" y2="50.069" gradientTransform="matrix(.625 0 0 .625 28.5 31.25)" gradientUnits="userSpaceOnUse" xlink:href="#a"/><linearGradient id="a"><stop offset="0" stop-color="#fff"/><stop offset="1" stop-color="#fff" stop-opacity="0"/></linearGradient><linearGradient id="b" x1="45.448" x2="45.448" y1="92.54" y2="7.016" gradientTransform="scale(1.0059 .99417)" gradientUnits="userSpaceOnUse"><stop offset="0"/><stop offset="1" stop-opacity=".588"/></linearGradient><filter id="i" color-interpolation-filters="sRGB"><feGaussianBlur stdDeviation=".637"/></filter><filter id="d" color-interpolation-filters="sRGB"><feGaussianBlur stdDeviation="1.2"/></filter><filter id="c" color-interpolation-filters="sRGB"><feGaussianBlur stdDeviation="1.71"/></filter><clipPath id="h"><path fill="#fff" d="M108.81 58a2.803 2.803 0 0 0-2.81 2.812v24.375A2.803 2.803 0 0 0 108.81 88h24.375c1.57 0 2.82-1.254 2.82-2.812V60.813a2.803 2.803 0 0 0-2.81-2.813H108.82zm7.188 4.5h10v8.75h5l-10 13.75-10-13.75h5V62.5z"/></clipPath></defs><rect width="28.203" height="28.203" x="1.898" y="1.898" ry="5.575" fill="#b7b7b7" fill-rule="evenodd"/><path d="M16 7c-1.662 0-3 1.338-3 3v6.008A5 5 0 0 0 11 20a5 5 0 0 0 5 5 5 5 0 0 0 5-5 5 5 0 0 0-2-3.992V10c0-1.662-1.338-3-3-3zm0 2c.589 0 1 .411 1 1v7.008l.8.6a2.997 2.997 0 0 1 1.2 2.394A2.97 2.97 0 0 1 16 23a2.97 2.97 0 0 1-3-2.998V20a2.997 2.997 0 0 1 1.2-2.393l.8-.6V10c0-.589.411-1 1-1z" fill="#4d4d4d"/><path d="M15 13v4.008l-.8.6A2.997 2.997 0 0 0 13 20v.002A2.97 2.97 0 0 0 16 23a2.97 2.97 0 0 0 3-2.998 2.997 2.997 0 0 0-1.2-2.395l-.8-.6V13z" fill="#f75f5f"/></svg>
